X: 21331
M: 2/4
L: 1/16
K: Bm
[|\
e2d2c2B2 | ^A2B2c4 |\
e2g>g f2^A2 | B2B2B4 |]
[|\
d2dd d2e2 | f2g2a4 |\
a2e'd' c'2e'2 | a2f'e'd'4 |\
d2dd d2e2 | f2g2a4 |\
a2e'd' c'2a2 | d'2f'2d'2z2 |]
[|\
e2d2c2B2 | ^A2B2c4 |\
e2g>g f2^A1 | B2d2B2z2 |]
[|\
dz/(A/F)z/(A/ d)z/(A/e)z/(A/ | f)z/(A/g)z/(A/ a)z/(A/b)z/(a/ |\
g)z/(e/A)z/(e/ g)z/(e/e')z/(c'/ | d')z/(a/f')z/(e'/ d')z/(a/g)z/(e/ |
d)z/(A/F)z/(A/ B)z/(A/e)z/(A/   | f)z/(A/g)z/(A/ a)z/(A/b)z/(a/ |\
g)z/(e/A)z/(e/ g)z/(e/e')z/(c'/ | d')z/(a/f')e' d'2z2 |]


